X: 4
T: Ormond Sound
C: Paddy O'Brien
Z: Erik-Fiddler
S: https://thesession.org/tunes/426#setting53210
R: reel
M: 4/4
L: 1/8
K: Ador
|:E/F/G|A2 ed BedB|{d}BAGB AG E/F/G|A2 ed B/^c/d ef|~g2 fa gedg|
eA (3A/A/A/A BedB|AGEF G3 D|EA (3A/A/A/A EA B/^c/d|1 gedB BA:|2 gedB BA||
|:Af|efge agfg|ea{b}af gfed|e/f/g fa ~(3g/g/g/g ge|dggd BAAB|
[c3E3] A [D3d3] B|efge [A2a2] ga|bg ~(3g/g/g/g agab|1 gedB BA:|2 gedB BA||

%-------------------- TUNE SEPARATOR --------------------%

